hosted/assets/icon/widgets/light-mode/unused/numeric-display.svg

<svg width="50" height="50" viewBox="0 0 50 50" fill="none" xmlns="http://www.w3.org/2000/svg">
<rect x="1" y="15" width="47" height="20" fill="#EBB803"/>
<path d="M2 14C0.906937 14 0 14.9069 0 16V34C0 35.0931 0.906937 36 2 36H48C49.0931 36 50 35.0931 50 34V16C50 14.9069 49.0931 14 48 14H2ZM2 16H48V34H2V16Z" fill="black"/>
<path d="M9.72266 29H8.07617V22.7949C7.47461 23.3574 6.76562 23.7734 5.94922 24.043V22.5488C6.37891 22.4082 6.8457 22.1426 7.34961 21.752C7.85352 21.3574 8.19922 20.8984 8.38672 20.375H9.72266V29Z" fill="black"/>
<path d="M12.5 27.3535H14.1465V28.5312C14.1465 29.0078 14.1055 29.3828 14.0234 29.6562C13.9414 29.9336 13.7852 30.1816 13.5547 30.4004C13.3281 30.6191 13.0391 30.791 12.6875 30.916L12.3652 30.2363C12.6973 30.127 12.9336 29.9766 13.0742 29.7852C13.2148 29.5938 13.2891 29.332 13.2969 29H12.5V27.3535Z" fill="black"/>
<path d="M21.0898 27.4707V29H15.3184C15.3809 28.4219 15.5684 27.875 15.8809 27.3594C16.1934 26.8398 16.8105 26.1523 17.7324 25.2969C18.4746 24.6055 18.9297 24.1367 19.0977 23.8906C19.3242 23.5508 19.4375 23.2148 19.4375 22.8828C19.4375 22.5156 19.3379 22.2344 19.1387 22.0391C18.9434 21.8398 18.6719 21.7402 18.3242 21.7402C17.9805 21.7402 17.707 21.8438 17.5039 22.0508C17.3008 22.2578 17.1836 22.6016 17.1523 23.082L15.5117 22.918C15.6094 22.0117 15.916 21.3613 16.4316 20.9668C16.9473 20.5723 17.5918 20.375 18.3652 20.375C19.2129 20.375 19.8789 20.6035 20.3633 21.0605C20.8477 21.5176 21.0898 22.0859 21.0898 22.7656C21.0898 23.1523 21.0195 23.5215 20.8789 23.873C20.7422 24.2207 20.5234 24.5859 20.2227 24.9688C20.0234 25.2227 19.6641 25.5879 19.1445 26.0645C18.625 26.541 18.2949 26.8574 18.1543 27.0137C18.0176 27.1699 17.9062 27.3223 17.8203 27.4707H21.0898Z" fill="black"/>
<path d="M24.9922 20.375C25.8242 20.375 26.4746 20.6719 26.9434 21.2656C27.502 21.9688 27.7812 23.1348 27.7812 24.7637C27.7812 26.3887 27.5 27.5566 26.9375 28.2676C26.4727 28.8535 25.8242 29.1465 24.9922 29.1465C24.1562 29.1465 23.4824 28.8262 22.9707 28.1855C22.459 27.541 22.2031 26.3945 22.2031 24.7461C22.2031 23.1289 22.4844 21.9648 23.0469 21.2539C23.5117 20.668 24.1602 20.375 24.9922 20.375ZM24.9922 21.7402C24.793 21.7402 24.6152 21.8047 24.459 21.9336C24.3027 22.0586 24.1816 22.2852 24.0957 22.6133C23.9824 23.0391 23.9258 23.7559 23.9258 24.7637C23.9258 25.7715 23.9766 26.4648 24.0781 26.8438C24.1797 27.2188 24.3066 27.4688 24.459 27.5938C24.6152 27.7188 24.793 27.7812 24.9922 27.7812C25.1914 27.7812 25.3691 27.7188 25.5254 27.5938C25.6816 27.4648 25.8027 27.2363 25.8887 26.9082C26.002 26.4863 26.0586 25.7715 26.0586 24.7637C26.0586 23.7559 26.0078 23.0645 25.9062 22.6895C25.8047 22.3105 25.6758 22.0586 25.5195 21.9336C25.3672 21.8047 25.1914 21.7402 24.9922 21.7402Z" fill="black"/>
</svg>

<svg width="50" height="50" fill="none" xmlns="http://www.w3.org/2000/svg"><path fill="#EBB803" d="M1 15h47v20H1z"/><path d="M2 14c-1.093 0-2 .907-2 2v18c0 1.093.907 2 2 2h46c1.093 0 2-.907 2-2V16c0-1.093-.907-2-2-2H2zm0 2h46v18H2V16z" fill="#000"/><path d="M9.723 29H8.076v-6.205a5.677 5.677 0 01-2.127 1.248v-1.494c.43-.14.897-.406 1.4-.797.505-.395.85-.854 1.038-1.377h1.336V29zm2.777-1.646h1.646v1.177c0 .477-.04.852-.123 1.125a1.672 1.672 0 01-.468.744c-.227.22-.516.391-.867.516l-.323-.68c.332-.109.569-.26.71-.45.14-.192.214-.454.222-.786H12.5v-1.646zm8.59.116V29h-5.772c.063-.578.25-1.125.563-1.64.312-.52.93-1.208 1.851-2.063.743-.692 1.198-1.16 1.366-1.406.226-.34.34-.676.34-1.008 0-.367-.1-.649-.3-.844-.195-.2-.466-.299-.814-.299-.344 0-.617.104-.82.31-.203.208-.32.552-.352 1.032l-1.64-.164c.097-.906.404-1.557.92-1.951.515-.395 1.16-.592 1.933-.592.848 0 1.514.229 1.998.686.485.457.727 1.025.727 1.705 0 .386-.07.756-.211 1.107a4.438 4.438 0 01-.656 1.096c-.2.254-.559.619-1.078 1.095-.52.477-.85.793-.99.95a2.933 2.933 0 00-.335.457h3.27zm3.902-7.095c.832 0 1.483.297 1.951.89.559.704.838 1.87.838 3.499 0 1.625-.281 2.793-.843 3.504-.465.585-1.114.878-1.946.878-.836 0-1.51-.32-2.021-.96-.512-.645-.768-1.791-.768-3.44 0-1.617.281-2.781.844-3.492.465-.586 1.113-.879 1.945-.879zm0 1.365a.814.814 0 00-.533.194c-.156.125-.277.351-.363.68-.114.425-.17 1.142-.17 2.15s.05 1.7.152 2.08c.102.375.229.625.381.75a.83.83 0 00.533.187.83.83 0 00.533-.187c.157-.13.278-.358.364-.686.113-.422.17-1.137.17-2.144 0-1.008-.051-1.7-.153-2.075-.101-.378-.23-.63-.386-.755a.792.792 0 00-.528-.194z" fill="#000"/></svg>
